Numix-GalliumOS/16/categories/applications-haskell.svg

<?xml version="1.0" encoding="UTF-8" standalone="no"?>
<svg
   xmlns:dc="http://purl.org/dc/elements/1.1/"
   xmlns:cc="http://creativecommons.org/ns#"
   xmlns:rdf="http://www.w3.org/1999/02/22-rdf-syntax-ns#"
   xmlns:svg="http://www.w3.org/2000/svg"
   xmlns="http://www.w3.org/2000/svg"
   xmlns:sodipodi="http://sodipodi.sourceforge.net/DTD/sodipodi-0.dtd"
   xmlns:inkscape="http://www.inkscape.org/namespaces/inkscape"
   width="16"
   height="16"
   viewBox="0 0 16 16"
   id="svg2"
   version="1.1"
   inkscape:version="0.91 r"
   sodipodi:docname="applications-haskell.svg">
  <metadata
     id="metadata38">
    <rdf:RDF>
      <cc:Work
         rdf:about="">
        <dc:format>image/svg+xml</dc:format>
        <dc:type
           rdf:resource="http://purl.org/dc/dcmitype/StillImage" />
        <dc:title />
      </cc:Work>
    </rdf:RDF>
  </metadata>
  <sodipodi:namedview
     pagecolor="#ffffff"
     bordercolor="#666666"
     borderopacity="1"
     objecttolerance="10"
     gridtolerance="10"
     guidetolerance="10"
     inkscape:pageopacity="0"
     inkscape:pageshadow="2"
     inkscape:window-width="1920"
     inkscape:window-height="1056"
     id="namedview36"
     showgrid="true"
     inkscape:zoom="20.85965"
     inkscape:cx="7.7091714"
     inkscape:cy="19.100619"
     inkscape:window-x="0"
     inkscape:window-y="24"
     inkscape:window-maximized="1"
     inkscape:current-layer="svg2">
    <inkscape:grid
       type="xygrid"
       id="grid4166" />
  </sodipodi:namedview>
  <defs
     id="defs4" />
  <path
     style="clip-rule:nonzero;fill:#4eb09d"
     d="M 1.6245,12.5 4.6244997,8.0000001 1.6245,3.5 3.8734932,3.5 6.8734933,8.0000001 3.8734932,12.5 Z"
     id="path22"
     inkscape:connector-curvature="0" />
  <path
     style="clip-rule:nonzero;fill:#4eb09d"
     d="M 4.6244997,12.5 7.6244998,8.0000001 4.6244997,3.5 l 2.2489936,0 6.0020137,9 -2.251007,0 L 8.7500028,9.6892621 6.8734933,12.5 Z"
     id="path26"
     inkscape:connector-curvature="0" />
  <path
     style="clip-rule:nonzero;fill:#4eb09d"
     d="m 11.873153,9.8749871 -0.999,-1.4999935 3.62585,0 0,1.5000065 z"
     id="path30"
     inkscape:connector-curvature="0"
     sodipodi:nodetypes="ccccc" />
  <path
     style="clip-rule:nonzero;fill:#4eb09d"
     d="m 10.374653,7.6250001 -0.9990002,-1.5 5.1243502,0 0,1.5 z"
     id="path34"
     inkscape:connector-curvature="0"
     sodipodi:nodetypes="ccccc" />
</svg>

<svg xmlns="http://www.w3.org/2000/svg" viewBox="0 0 16 16">
 <path d="m 1.625 12.5 3 -4.5 -3 -4.5 2.249 0 3 4.5 -3 4.5" style="fill:#4eb09d"/>
 <path d="m 4.624 12.5 3 -4.5 -3 -4.5 l 2.249 0 6 9 -2.251 0 l -1.874 -2.811 -1.877 2.811" style="fill:#4eb09d"/>
 <path d="m 11.873 9.875 -0.999 -1.5 3.626 0 0 1.5 z" style="fill:#4eb09d"/>
 <path d="m 10.375 7.625 -0.999 -1.5 5.124 0 0 1.5 z" style="fill:#4eb09d"/>
</svg>
